X:51
T:T031A- Yemon O Knock [Ned of the Hill]
S:Oswald's Caledonian Pocket Companion, bk. 11, c 1760
N:Thumoth's is about the same
Q:1/4=60
L:1/4
M:3/4
K:G
G|Gd~(c/2B/2)|ce(d/2B/2)|A(c/2B/2) ~A/2G/2|G2G|\
(G/2B/2)d(c/2B/2)|(E/2c/2)e(d/2B/2)|A(c/2B/2)(A/2G/2)|G2::\
d|g(f/2e/2)a/2g/2|~f(e/2d/2)(g/2f/2)|~e3/2 d/2 B/2d/2|\
e3/2 f/2 g|G/2B/2d(c/2B/2)|ce(d/2B/2)|A{c/2}B(A/2G/2|G2::\
G|(e/2d/2)B(A/2G/2)|c(g/2e/2)(d/2c/2)|A(c/2B/2)(A/2G/2)|\
A2(b/2a/2)|(g/2e/2)d(b/2a/2)|(g/2e/2)(d/2B/2)(d/2B/2)|\
A(c/2B/2)(A/2G/2)|G2:|]

